packages/app-store/caldavcalendar/static/icon.svg

<svg xmlns="http://www.w3.org/2000/svg" width="3004" height="3004" fill="none">
  <path fill="#DFE4E4" stroke="#fff" stroke-width="100" d="m2809.88 802.052 12.75 14.238v1801.24c0 168.34-136.45 304.8-304.8 304.8H485.801c-168.343 0-304.801-136.46-304.801-304.8V825.541l3.742-9.121 28.646-69.814 12.728-31.02H2732.48l14.91 16.652 62.49 69.814Z"/>
  <path fill="#CD2E47" stroke="#fff" stroke-width="100" d="M2822.63 835.4v50H181V585.507c0-168.345 136.457-304.814 304.801-304.814H2517.83c168.35 0 304.8 136.47 304.8 304.814V835.4Z"/>
  <path fill="#1C202E" stroke="#fff" stroke-width="70" d="M593.032 611.307h-3.084c-53.065 0-96.079-43.018-96.079-96.08V192.08c0-53.062 43.015-96.08 96.079-96.08h3.084c53.064 0 96.078 43.018 96.078 96.08v323.147c0 53.062-43.014 96.08-96.078 96.08ZM1050.09 611.307h-3.08c-53.065 0-96.081-43.018-96.081-96.08V192.08c0-53.063 43.016-96.08 96.081-96.08h3.08c53.07 0 96.08 43.017 96.08 96.08v323.147c0 53.062-43.01 96.08-96.08 96.08ZM1507.15 611.307h-3.08c-53.06 0-96.08-43.017-96.08-96.08V192.08c0-53.063 43.02-96.08 96.08-96.08h3.08c53.06 0 96.08 43.017 96.08 96.08v323.147c0 53.063-43.02 96.08-96.08 96.08ZM1964.22 611.307h-3.08c-53.07 0-96.08-43.017-96.08-96.08V192.08c0-53.063 43.01-96.08 96.08-96.08h3.08c53.06 0 96.08 43.017 96.08 96.08v323.147c0 53.063-43.02 96.08-96.08 96.08ZM2421.27 611.307h-3.08c-53.06 0-96.08-43.017-96.08-96.08V192.08c0-53.064 43.02-96.08 96.08-96.08h3.08c53.06 0 96.08 43.017 96.08 96.08v323.147c0 53.063-43.02 96.08-96.08 96.08Z"/>
  <path fill="#DFE4E4" d="M2772.63 835.4v1782.13c0 140.72-114.07 254.8-254.8 254.8H485.801c-140.728 0-254.801-114.08-254.801-254.8V835.4l28.645-69.813H2710.14l62.49 69.813Z"/>
  <path fill="#CD2E47" d="M2772.63 585.507V835.4H231V585.507c0-140.734 114.073-254.814 254.801-254.814H2517.83c140.73 0 254.8 114.08 254.8 254.814Z"/>
  <path fill="#9B213B" d="M684.276 632.147H491.114c-21.767 0-39.414-17.64-39.414-39.414V510.72c0-21.773 17.647-39.413 39.414-39.413h193.162c21.768 0 39.414 17.64 39.414 39.413v82.013c0 21.774-17.646 39.414-39.414 39.414Z"/>
  <path fill="#1C202E" d="M593.032 576.307h-3.084c-33.733 0-61.079-27.347-61.079-61.08V192.08c0-33.733 27.346-61.08 61.079-61.08h3.084c33.733 0 61.078 27.347 61.078 61.08v323.147c0 33.733-27.345 61.08-61.078 61.08Z"/>
  <path fill="#9B213B" d="M1141.34 632.147H948.174c-21.768 0-39.414-17.64-39.414-39.414V510.72c0-21.773 17.646-39.413 39.414-39.413h193.166c21.76 0 39.41 17.64 39.41 39.413v82.013c0 21.774-17.65 39.414-39.41 39.414Z"/>
  <path fill="#1C202E" d="M1050.09 576.307h-3.08c-33.73 0-61.081-27.347-61.081-61.08V192.08c0-33.733 27.351-61.08 61.081-61.08h3.08c33.74 0 61.08 27.347 61.08 61.08v323.147c0 33.733-27.34 61.08-61.08 61.08Z"/>
  <path fill="#9B213B" d="M1598.4 632.147h-193.17c-21.76 0-39.41-17.64-39.41-39.414V510.72c0-21.773 17.65-39.413 39.41-39.413h193.17c21.76 0 39.42 17.64 39.42 39.413v82.013c0 21.774-17.66 39.414-39.42 39.414Z"/>
  <path fill="#1C202E" d="M1507.15 576.307h-3.08c-33.73 0-61.08-27.347-61.08-61.08V192.08c0-33.733 27.35-61.08 61.08-61.08h3.08c33.73 0 61.08 27.347 61.08 61.08v323.147c0 33.733-27.35 61.08-61.08 61.08Z"/>
  <path fill="#9B213B" d="M2055.46 632.147H1862.3c-21.78 0-39.42-17.64-39.42-39.414V510.72c0-21.773 17.64-39.413 39.42-39.413h193.16c21.77 0 39.41 17.64 39.41 39.413v82.013c0 21.774-17.64 39.414-39.41 39.414Z"/>
  <path fill="#1C202E" d="M1964.22 576.307h-3.08c-33.74 0-61.08-27.347-61.08-61.08V192.08c0-33.733 27.34-61.08 61.08-61.08h3.08c33.73 0 61.08 27.347 61.08 61.08v323.147c0 33.733-27.35 61.08-61.08 61.08Z"/>
  <path fill="#9B213B" d="M2512.52 632.147h-193.16c-21.77 0-39.42-17.64-39.42-39.414V510.72c0-21.773 17.65-39.413 39.42-39.413h193.16c21.76 0 39.42 17.64 39.42 39.413v82.013c0 21.774-17.66 39.414-39.42 39.414Z"/>
  <path fill="#1C202E" d="M2421.27 576.307h-3.08c-33.73 0-61.08-27.347-61.08-61.08V192.08c0-33.733 27.35-61.08 61.08-61.08h3.08c33.73 0 61.08 27.347 61.08 61.08v323.147c0 33.733-27.35 61.08-61.08 61.08Z"/>
  <path fill="#B9C3C4" d="M842.32 959.6h154.945c21.575 0 39.065 17.48 39.065 39.053v154.957c0 21.56-17.49 39.06-39.065 39.06H842.32c-21.573 0-39.063-17.5-39.063-39.06V998.653c0-21.573 17.49-39.053 39.063-39.053ZM1618.35 959.6h154.95c21.57 0 39.06 17.48 39.06 39.053v154.957c0 21.56-17.49 39.06-39.06 39.06h-154.95c-21.57 0-39.07-17.5-39.07-39.06V998.653c0-21.573 17.5-39.053 39.07-39.053ZM2588.39 998.653v154.957c0 21.56-17.49 39.06-39.07 39.06h-154.94c-21.58 0-39.06-17.5-39.06-39.06V998.653c0-21.573 17.48-39.053 39.06-39.053h154.94c21.58 0 39.07 17.48 39.07 39.053ZM454.304 959.6h154.945c21.574 0 39.063 17.48 39.063 39.053v154.957c0 21.56-17.489 39.06-39.063 39.06H454.304c-21.573 0-39.063-17.5-39.063-39.06V998.653c0-21.573 17.49-39.053 39.063-39.053ZM2006.36 959.6h154.95c21.57 0 39.07 17.48 39.07 39.053v154.957c0 21.56-17.5 39.06-39.07 39.06h-154.95c-21.57 0-39.05-17.5-39.05-39.06V998.653c0-21.573 17.48-39.053 39.05-39.053ZM1230.33 959.6h154.95c21.58 0 39.07 17.48 39.07 39.053v154.957c0 21.56-17.49 39.06-39.07 39.06h-154.95c-21.57 0-39.06-17.5-39.06-39.06V998.653c0-21.573 17.49-39.053 39.06-39.053ZM1618.35 2092.4h154.95c21.57 0 39.06 17.48 39.06 39.05v154.95c0 21.57-17.49 39.07-39.06 39.07h-154.95c-21.57 0-39.07-17.5-39.07-39.07v-154.95c0-21.57 17.5-39.05 39.07-39.05ZM2588.39 2131.45v154.95c0 21.57-17.49 39.07-39.07 39.07h-154.94c-21.58 0-39.06-17.5-39.06-39.07v-154.95c0-21.57 17.48-39.05 39.06-39.05h154.94c21.58 0 39.07 17.48 39.07 39.05ZM2006.36 2092.4h154.95c21.57 0 39.07 17.48 39.07 39.05v154.95c0 21.57-17.5 39.07-39.07 39.07h-154.95c-21.57 0-39.05-17.5-39.05-39.07v-154.95c0-21.57 17.48-39.05 39.05-39.05ZM1230.33 2092.4h154.95c21.58 0 39.07 17.48 39.07 39.05v154.95c0 21.57-17.49 39.07-39.07 39.07h-154.95c-21.57 0-39.06-17.5-39.06-39.07v-154.95c0-21.57 17.49-39.05 39.06-39.05ZM842.32 2092.4h154.945c21.575 0 39.065 17.48 39.065 39.05v154.95c0 21.57-17.49 39.07-39.065 39.07H842.32c-21.573 0-39.063-17.5-39.063-39.07v-154.95c0-21.57 17.49-39.05 39.063-39.05ZM454.304 2092.4h154.945c21.574 0 39.063 17.48 39.063 39.05v154.95c0 21.57-17.489 39.07-39.063 39.07H454.304c-21.573 0-39.063-17.5-39.063-39.07v-154.95c0-21.57 17.49-39.05 39.063-39.05ZM454.304 2470h154.945c21.574 0 39.063 17.48 39.063 39.05V2664c0 21.57-17.489 39.07-39.063 39.07H454.304c-21.573 0-39.063-17.5-39.063-39.07v-154.95c0-21.57 17.49-39.05 39.063-39.05ZM842.32 2470h154.945c21.575 0 39.065 17.48 39.065 39.05V2664c0 21.57-17.49 39.07-39.065 39.07H842.32c-21.573 0-39.063-17.5-39.063-39.07v-154.95c0-21.57 17.49-39.05 39.063-39.05ZM1424.35 2509.05V2664c0 21.57-17.49 39.07-39.07 39.07h-154.95c-21.57 0-39.06-17.5-39.06-39.07v-154.95c0-21.57 17.49-39.05 39.06-39.05h154.95c21.58 0 39.07 17.48 39.07 39.05Z"/>
  <path fill="#1C202E" d="M2178.1 1401.28h114.89l113.48 315.59c8.03 23.17 13.94 43.97 17.73 62.41 3.78-19.38 9.69-40.19 17.73-62.41l113.47-315.59h112.76l-196.45 496.44h-95.74l-197.87-496.44ZM1994.44 1401.28h85.81l202.13 496.44h-107.8l-34.04-94.33h-207.09l-34.04 94.33h-107.8l202.83-496.44Zm113.47 316.3-53.19-135.46c-8.03-20.8-13.94-39.71-17.73-56.73-6.14 23.64-12.05 42.55-17.73 56.73l-53.19 135.46h141.84ZM1391.06 1401.28h177.3c55.79 0 102.6 10.63 140.42 31.91 38.3 21.28 66.9 50.59 85.81 87.94 18.92 37.35 28.37 80.38 28.37 129.08 0 48.22-9.45 91.01-28.37 128.36-18.91 37.35-47.51 66.67-85.81 87.94-37.82 20.81-84.63 31.21-140.42 31.21h-177.3v-496.44Zm165.24 407.08c55.79 0 96.93-14.19 123.4-42.55 26.95-28.84 40.43-67.38 40.43-115.6 0-48.23-13.48-86.76-40.43-115.6-26.47-29.32-67.61-43.97-123.4-43.97h-65.95v317.72h65.95ZM1231.6 1380h95.74v517.72h-95.74V1380ZM962.661 1906.94c-33.096 0-63.592-8.51-91.487-25.53-27.895-17.5-50.117-40.9-66.665-70.21-16.075-29.32-24.113-61.47-24.113-96.46 0-34.98 8.038-67.13 24.113-96.45 16.548-29.78 38.77-53.42 66.665-70.92 27.895-17.49 58.391-26.24 91.487-26.24 30.26 0 54.609 5.67 73.049 17.02 18.91 11.35 33.57 27.66 43.97 48.94v-58.16h95.03v368.79h-92.9v-60.28c-10.88 22.22-25.77 39.47-44.68 51.77-18.44 11.82-43.264 17.73-74.469 17.73Zm-86.523-192.91c0 18.92 4.256 36.65 12.766 53.19 8.983 16.08 21.04 29.08 36.169 39.01 15.603 9.46 33.333 14.18 53.191 14.18 20.33 0 38.296-4.72 53.896-14.18 16.08-9.46 28.37-22.22 36.88-38.3 8.51-16.07 12.77-33.8 12.77-53.19 0-19.38-4.26-37.11-12.77-53.19-8.51-16.54-20.8-29.55-36.88-39-15.6-9.93-33.566-14.9-53.896-14.9-19.858 0-37.588 4.97-53.191 14.9-15.602 9.45-27.659 22.22-36.169 38.29-8.51 16.08-12.766 33.81-12.766 53.19ZM594.008 1906.94c-48.225 0-92.196-11.35-131.911-34.04-39.243-23.17-70.211-54.38-92.906-93.62-22.694-39.24-34.042-82.27-34.042-129.07 0-47.28 10.875-90.55 32.624-129.79 22.221-39.71 52.954-70.92 92.196-93.61 39.243-23.17 83.922-34.75 134.039-34.75 40.189 0 74.703 6.38 103.544 19.14 29.314 12.3 55.318 31.92 78.012 58.87l-70.211 60.99c-29.786-31.2-66.901-46.81-111.345-46.81-31.204 0-58.627 7.57-82.267 22.7-23.64 14.65-41.843 34.75-54.609 60.28-12.765 25.06-19.148 52.72-19.148 82.98 0 30.26 6.383 57.91 19.148 82.97 13.239 25.06 31.678 44.92 55.318 59.58 24.113 14.65 52.008 21.98 83.686 21.98 46.335 0 84.159-16.07 113.473-48.22l72.338 61.7c-19.857 24.11-45.862 43.26-78.012 57.44-31.678 14.19-68.32 21.28-109.927 21.28Z"/>
</svg>

<svg width="3004" height="3004" viewBox="0 0 3004 3004" fill="none" xmlns="http://www.w3.org/2000/svg">
<path d="M2809.88 802.052L2822.63 816.29V835.4V2617.53C2822.63 2785.87 2686.18 2922.33 2517.83 2922.33H485.801C317.458 2922.33 181 2785.87 181 2617.53V835.4V825.541L184.742 816.42L213.388 746.606L226.116 715.586H259.645H2710.14H2732.48L2747.39 732.238L2809.88 802.052Z" fill="#DFE4E4" stroke="white" stroke-width="100"/>
<path d="M2822.63 835.4V885.4H2772.63H231H181V835.4V585.507C181 417.162 317.457 280.693 485.801 280.693H2517.83C2686.18 280.693 2822.63 417.163 2822.63 585.507V835.4Z" fill="#CD2E47" stroke="white" stroke-width="100"/>
<path d="M593.032 611.307H589.948C536.883 611.307 493.869 568.289 493.869 515.227V192.08C493.869 139.018 536.884 96 589.948 96H593.032C646.096 96 689.11 139.018 689.11 192.08V515.227C689.11 568.289 646.096 611.307 593.032 611.307Z" fill="#1C202E" stroke="white" stroke-width="70"/>
<path d="M1050.09 611.307H1047.01C993.945 611.307 950.929 568.289 950.929 515.227V192.08C950.929 139.017 993.945 96 1047.01 96H1050.09C1103.16 96 1146.17 139.017 1146.17 192.08V515.227C1146.17 568.289 1103.16 611.307 1050.09 611.307Z" fill="#1C202E" stroke="white" stroke-width="70"/>
<path d="M1507.15 611.307H1504.07C1451.01 611.307 1407.99 568.29 1407.99 515.227V192.08C1407.99 139.017 1451.01 96 1504.07 96H1507.15C1560.21 96 1603.23 139.017 1603.23 192.08V515.227C1603.23 568.29 1560.21 611.307 1507.15 611.307Z" fill="#1C202E" stroke="white" stroke-width="70"/>
<path d="M1964.22 611.307H1961.14C1908.07 611.307 1865.06 568.29 1865.06 515.227V192.08C1865.06 139.017 1908.07 96 1961.14 96H1964.22C2017.28 96 2060.3 139.017 2060.3 192.08V515.227C2060.3 568.29 2017.28 611.307 1964.22 611.307Z" fill="#1C202E" stroke="white" stroke-width="70"/>
<path d="M2421.27 611.307H2418.19C2365.13 611.307 2322.11 568.29 2322.11 515.227V192.08C2322.11 139.016 2365.13 96 2418.19 96H2421.27C2474.33 96 2517.35 139.017 2517.35 192.08V515.227C2517.35 568.29 2474.33 611.307 2421.27 611.307Z" fill="#1C202E" stroke="white" stroke-width="70"/>
<path d="M2772.63 835.4V2617.53C2772.63 2758.25 2658.56 2872.33 2517.83 2872.33H485.801C345.073 2872.33 231 2758.25 231 2617.53V835.4L259.645 765.587H2710.14L2772.63 835.4Z" fill="#DFE4E4"/>
<path d="M2772.63 585.507V835.4H231V585.507C231 444.773 345.073 330.693 485.801 330.693H2517.83C2658.56 330.693 2772.63 444.773 2772.63 585.507Z" fill="#CD2E47"/>
<path d="M684.276 632.147H491.114C469.347 632.147 451.7 614.507 451.7 592.733V510.72C451.7 488.947 469.347 471.307 491.114 471.307H684.276C706.044 471.307 723.69 488.947 723.69 510.72V592.733C723.69 614.507 706.044 632.147 684.276 632.147Z" fill="#9B213B"/>
<path d="M593.032 576.307H589.948C556.215 576.307 528.869 548.96 528.869 515.227V192.08C528.869 158.347 556.215 131 589.948 131H593.032C626.765 131 654.11 158.347 654.11 192.08V515.227C654.11 548.96 626.765 576.307 593.032 576.307Z" fill="#1C202E"/>
<path d="M1141.34 632.147H948.174C926.406 632.147 908.76 614.507 908.76 592.733V510.72C908.76 488.947 926.406 471.307 948.174 471.307H1141.34C1163.1 471.307 1180.75 488.947 1180.75 510.72V592.733C1180.75 614.507 1163.1 632.147 1141.34 632.147Z" fill="#9B213B"/>
<path d="M1050.09 576.307H1047.01C1013.28 576.307 985.929 548.96 985.929 515.227V192.08C985.929 158.347 1013.28 131 1047.01 131H1050.09C1083.83 131 1111.17 158.347 1111.17 192.08V515.227C1111.17 548.96 1083.83 576.307 1050.09 576.307Z" fill="#1C202E"/>
<path d="M1598.4 632.147H1405.23C1383.47 632.147 1365.82 614.507 1365.82 592.733V510.72C1365.82 488.947 1383.47 471.307 1405.23 471.307H1598.4C1620.16 471.307 1637.82 488.947 1637.82 510.72V592.733C1637.82 614.507 1620.16 632.147 1598.4 632.147Z" fill="#9B213B"/>
<path d="M1507.15 576.307H1504.07C1470.34 576.307 1442.99 548.96 1442.99 515.227V192.08C1442.99 158.347 1470.34 131 1504.07 131H1507.15C1540.88 131 1568.23 158.347 1568.23 192.08V515.227C1568.23 548.96 1540.88 576.307 1507.15 576.307Z" fill="#1C202E"/>
<path d="M2055.46 632.147H1862.3C1840.52 632.147 1822.88 614.507 1822.88 592.733V510.72C1822.88 488.947 1840.52 471.307 1862.3 471.307H2055.46C2077.23 471.307 2094.87 488.947 2094.87 510.72V592.733C2094.87 614.507 2077.23 632.147 2055.46 632.147Z" fill="#9B213B"/>
<path d="M1964.22 576.307H1961.14C1927.4 576.307 1900.06 548.96 1900.06 515.227V192.08C1900.06 158.347 1927.4 131 1961.14 131H1964.22C1997.95 131 2025.3 158.347 2025.3 192.08V515.227C2025.3 548.96 1997.95 576.307 1964.22 576.307Z" fill="#1C202E"/>
<path d="M2512.52 632.147H2319.36C2297.59 632.147 2279.94 614.507 2279.94 592.733V510.72C2279.94 488.947 2297.59 471.307 2319.36 471.307H2512.52C2534.28 471.307 2551.94 488.947 2551.94 510.72V592.733C2551.94 614.507 2534.28 632.147 2512.52 632.147Z" fill="#9B213B"/>
<path d="M2421.27 576.307H2418.19C2384.46 576.307 2357.11 548.96 2357.11 515.227V192.08C2357.11 158.347 2384.46 131 2418.19 131H2421.27C2455 131 2482.35 158.347 2482.35 192.08V515.227C2482.35 548.96 2455 576.307 2421.27 576.307Z" fill="#1C202E"/>
<path d="M842.32 959.6H997.265C1018.84 959.6 1036.33 977.08 1036.33 998.653V1153.61C1036.33 1175.17 1018.84 1192.67 997.265 1192.67H842.32C820.747 1192.67 803.257 1175.17 803.257 1153.61V998.653C803.257 977.08 820.747 959.6 842.32 959.6Z" fill="#B9C3C4"/>
<path d="M1618.35 959.6H1773.3C1794.87 959.6 1812.36 977.08 1812.36 998.653V1153.61C1812.36 1175.17 1794.87 1192.67 1773.3 1192.67H1618.35C1596.78 1192.67 1579.28 1175.17 1579.28 1153.61V998.653C1579.28 977.08 1596.78 959.6 1618.35 959.6Z" fill="#B9C3C4"/>
<path d="M2588.39 998.653V1153.61C2588.39 1175.17 2570.9 1192.67 2549.32 1192.67H2394.38C2372.8 1192.67 2355.32 1175.17 2355.32 1153.61V998.653C2355.32 977.08 2372.8 959.6 2394.38 959.6H2549.32C2570.9 959.6 2588.39 977.08 2588.39 998.653Z" fill="#B9C3C4"/>
<path d="M454.304 959.6H609.249C630.823 959.6 648.312 977.08 648.312 998.653V1153.61C648.312 1175.17 630.823 1192.67 609.249 1192.67H454.304C432.731 1192.67 415.241 1175.17 415.241 1153.61V998.653C415.241 977.08 432.731 959.6 454.304 959.6Z" fill="#B9C3C4"/>
<path d="M2006.36 959.6H2161.31C2182.88 959.6 2200.38 977.08 2200.38 998.653V1153.61C2200.38 1175.17 2182.88 1192.67 2161.31 1192.67H2006.36C1984.79 1192.67 1967.31 1175.17 1967.31 1153.61V998.653C1967.31 977.08 1984.79 959.6 2006.36 959.6Z" fill="#B9C3C4"/>
<path d="M1230.33 959.6H1385.28C1406.86 959.6 1424.35 977.08 1424.35 998.653V1153.61C1424.35 1175.17 1406.86 1192.67 1385.28 1192.67H1230.33C1208.76 1192.67 1191.27 1175.17 1191.27 1153.61V998.653C1191.27 977.08 1208.76 959.6 1230.33 959.6Z" fill="#B9C3C4"/>
<path d="M1618.35 2092.4H1773.3C1794.87 2092.4 1812.36 2109.88 1812.36 2131.45V2286.4C1812.36 2307.97 1794.87 2325.47 1773.3 2325.47H1618.35C1596.78 2325.47 1579.28 2307.97 1579.28 2286.4V2131.45C1579.28 2109.88 1596.78 2092.4 1618.35 2092.4Z" fill="#B9C3C4"/>
<path d="M2588.39 2131.45V2286.4C2588.39 2307.97 2570.9 2325.47 2549.32 2325.47H2394.38C2372.8 2325.47 2355.32 2307.97 2355.32 2286.4V2131.45C2355.32 2109.88 2372.8 2092.4 2394.38 2092.4H2549.32C2570.9 2092.4 2588.39 2109.88 2588.39 2131.45Z" fill="#B9C3C4"/>
<path d="M2006.36 2092.4H2161.31C2182.88 2092.4 2200.38 2109.88 2200.38 2131.45V2286.4C2200.38 2307.97 2182.88 2325.47 2161.31 2325.47H2006.36C1984.79 2325.47 1967.31 2307.97 1967.31 2286.4V2131.45C1967.31 2109.88 1984.79 2092.4 2006.36 2092.4Z" fill="#B9C3C4"/>
<path d="M1230.33 2092.4H1385.28C1406.86 2092.4 1424.35 2109.88 1424.35 2131.45V2286.4C1424.35 2307.97 1406.86 2325.47 1385.28 2325.47H1230.33C1208.76 2325.47 1191.27 2307.97 1191.27 2286.4V2131.45C1191.27 2109.88 1208.76 2092.4 1230.33 2092.4Z" fill="#B9C3C4"/>
<path d="M842.32 2092.4H997.265C1018.84 2092.4 1036.33 2109.88 1036.33 2131.45V2286.4C1036.33 2307.97 1018.84 2325.47 997.265 2325.47H842.32C820.747 2325.47 803.257 2307.97 803.257 2286.4V2131.45C803.257 2109.88 820.747 2092.4 842.32 2092.4Z" fill="#B9C3C4"/>
<path d="M454.304 2092.4H609.249C630.823 2092.4 648.312 2109.88 648.312 2131.45V2286.4C648.312 2307.97 630.823 2325.47 609.249 2325.47H454.304C432.731 2325.47 415.241 2307.97 415.241 2286.4V2131.45C415.241 2109.88 432.731 2092.4 454.304 2092.4Z" fill="#B9C3C4"/>
<path d="M454.304 2470H609.249C630.823 2470 648.312 2487.48 648.312 2509.05V2664C648.312 2685.57 630.823 2703.07 609.249 2703.07H454.304C432.731 2703.07 415.241 2685.57 415.241 2664V2509.05C415.241 2487.48 432.731 2470 454.304 2470Z" fill="#B9C3C4"/>
<path d="M842.32 2470H997.265C1018.84 2470 1036.33 2487.48 1036.33 2509.05V2664C1036.33 2685.57 1018.84 2703.07 997.265 2703.07H842.32C820.747 2703.07 803.257 2685.57 803.257 2664V2509.05C803.257 2487.48 820.747 2470 842.32 2470Z" fill="#B9C3C4"/>
<path d="M1424.35 2509.05V2664C1424.35 2685.57 1406.86 2703.07 1385.28 2703.07H1230.33C1208.76 2703.07 1191.27 2685.57 1191.27 2664V2509.05C1191.27 2487.48 1208.76 2470 1230.33 2470H1385.28C1406.86 2470 1424.35 2487.48 1424.35 2509.05Z" fill="#B9C3C4"/>
<path d="M2178.1 1401.28H2292.99L2406.47 1716.87C2414.5 1740.04 2420.41 1760.84 2424.2 1779.28C2427.98 1759.9 2433.89 1739.09 2441.93 1716.87L2555.4 1401.28H2668.16L2471.71 1897.72H2375.97L2178.1 1401.28Z" fill="#1C202E"/>
<path d="M1994.44 1401.28H2080.25L2282.38 1897.72H2174.58L2140.54 1803.39H1933.45L1899.41 1897.72H1791.61L1994.44 1401.28ZM2107.91 1717.58L2054.72 1582.12C2046.69 1561.32 2040.78 1542.41 2036.99 1525.39C2030.85 1549.03 2024.94 1567.94 2019.26 1582.12L1966.07 1717.58H2107.91Z" fill="#1C202E"/>
<path d="M1391.06 1401.28H1568.36C1624.15 1401.28 1670.96 1411.91 1708.78 1433.19C1747.08 1454.47 1775.68 1483.78 1794.59 1521.13C1813.51 1558.48 1822.96 1601.51 1822.96 1650.21C1822.96 1698.43 1813.51 1741.22 1794.59 1778.57C1775.68 1815.92 1747.08 1845.24 1708.78 1866.51C1670.96 1887.32 1624.15 1897.72 1568.36 1897.72H1391.06V1401.28ZM1556.3 1808.36C1612.09 1808.36 1653.23 1794.17 1679.7 1765.81C1706.65 1736.97 1720.13 1698.43 1720.13 1650.21C1720.13 1601.98 1706.65 1563.45 1679.7 1534.61C1653.23 1505.29 1612.09 1490.64 1556.3 1490.64H1490.35V1808.36H1556.3Z" fill="#1C202E"/>
<path d="M1231.6 1380H1327.34V1897.72H1231.6V1380Z" fill="#1C202E"/>
<path d="M962.661 1906.94C929.565 1906.94 899.069 1898.43 871.174 1881.41C843.279 1863.91 821.057 1840.51 804.509 1811.2C788.434 1781.88 780.396 1749.73 780.396 1714.74C780.396 1679.76 788.434 1647.61 804.509 1618.29C821.057 1588.51 843.279 1564.87 871.174 1547.37C899.069 1529.88 929.565 1521.13 962.661 1521.13C992.921 1521.13 1017.27 1526.8 1035.71 1538.15C1054.62 1549.5 1069.28 1565.81 1079.68 1587.09V1528.93H1174.71V1897.72H1081.81V1837.44C1070.93 1859.66 1056.04 1876.91 1037.13 1889.21C1018.69 1901.03 993.866 1906.94 962.661 1906.94ZM876.138 1714.03C876.138 1732.95 880.394 1750.68 888.904 1767.22C897.887 1783.3 909.944 1796.3 925.073 1806.23C940.676 1815.69 958.406 1820.41 978.264 1820.41C998.594 1820.41 1016.56 1815.69 1032.16 1806.23C1048.24 1796.77 1060.53 1784.01 1069.04 1767.93C1077.55 1751.86 1081.81 1734.13 1081.81 1714.74C1081.81 1695.36 1077.55 1677.63 1069.04 1661.55C1060.53 1645.01 1048.24 1632 1032.16 1622.55C1016.56 1612.62 998.594 1607.65 978.264 1607.65C958.406 1607.65 940.676 1612.62 925.073 1622.55C909.471 1632 897.414 1644.77 888.904 1660.84C880.394 1676.92 876.138 1694.65 876.138 1714.03Z" fill="#1C202E"/>
<path d="M594.008 1906.94C545.783 1906.94 501.812 1895.59 462.097 1872.9C422.854 1849.73 391.886 1818.52 369.191 1779.28C346.497 1740.04 335.149 1697.01 335.149 1650.21C335.149 1602.93 346.024 1559.66 367.773 1520.42C389.994 1480.71 420.727 1449.5 459.969 1426.81C499.212 1403.64 543.891 1392.06 594.008 1392.06C634.197 1392.06 668.711 1398.44 697.552 1411.2C726.866 1423.5 752.87 1443.12 775.564 1470.07L705.353 1531.06C675.567 1499.86 638.452 1484.25 594.008 1484.25C562.804 1484.25 535.381 1491.82 511.741 1506.95C488.101 1521.6 469.898 1541.7 457.132 1567.23C444.367 1592.29 437.984 1619.95 437.984 1650.21C437.984 1680.47 444.367 1708.12 457.132 1733.18C470.371 1758.24 488.81 1778.1 512.45 1792.76C536.563 1807.41 564.458 1814.74 596.136 1814.74C642.471 1814.74 680.295 1798.67 709.609 1766.52L781.947 1828.22C762.09 1852.33 736.085 1871.48 703.935 1885.66C672.257 1899.85 635.615 1906.94 594.008 1906.94Z" fill="#1C202E"/>
</svg>
